X:47
T:New Ministry THO3.047, The
O:England;London
M:2/4
L:1/8
Z:vmp. Peter Dunk 2011.from a transcription by Fynn Titford-Mock 2006-9
B:Thompson's Compleat Collection of 200 Favourite Country Dances Vol. III.1765-72
Q:1/4=140
K:C
c2 (c/d/e)|dB AG|cegc|B2G2|c2 (c/d/e)|dB AG|EcDB|c2 [c2C2]:|
|:ge- e(f/g/)|af-fa|fd- d(e/f/)|ge- e(g/f/)|\
ec- c(d/e/)|(f/g/a) (e/f/g)|(B/c/d) GB|c2 [c2C2]:|

